src/assets/icons/twitter.svg

<svg viewBox="0 0 640 640" xmlns="http://www.w3.org/2000/svg"><path d="m160 96c-35.3 0-64 28.7-64 64v320c0 35.3 28.7 64 64 64h320c35.3 0 64-28.7 64-64v-320c0-35.3-28.7-64-64-64zm297.1 84-103.8 118.6 122.1 161.4h-95.6l-74.8-97.9-85.7 97.9h-47.5l111-126.9-117.1-153.1h98l67.7 89.5 78.2-89.5zm-37.8 251.6-169.9-224.7h-28.3l171.8 224.7z"/></svg>

<svg xmlns="http://www.w3.org/2000/svg" viewBox="0 0 640 640"><!--!Font Awesome Free 7.0.1 by @fontawesome - https://fontawesome.com License - https://fontawesome.com/license/free Copyright 2025 Fonticons, Inc.--><path d="M160 96C124.7 96 96 124.7 96 160L96 480C96 515.3 124.7 544 160 544L480 544C515.3 544 544 515.3 544 480L544 160C544 124.7 515.3 96 480 96L160 96zM457.1 180L353.3 298.6L475.4 460L379.8 460L305 362.1L219.3 460L171.8 460L282.8 333.1L165.7 180L263.7 180L331.4 269.5L409.6 180L457.1 180zM419.3 431.6L249.4 206.9L221.1 206.9L392.9 431.6L419.3 431.6z"/></svg>
